services/cinematic/luts/thriller_teal_orange.cube
LUT_3D_SIZE 5
0.000000 0.010000 0.045000
0.106475 0.013616 0.052126
0.359465 0.021306 0.062391
0.630491 0.029172 0.066740
0.757391 0.032983 0.067203
0.005511 0.144367 0.057455
0.118560 0.148682 0.061599
0.382038 0.157739 0.066506
0.658871 0.166813 0.066952
0.786917 0.171126 0.066112
0.036226 0.447839 0.067190
0.160414 0.452336 0.066996
0.440748 0.461703 0.064652
0.724345 0.470888 0.060945
0.852228 0.475174 0.059223
0.096519 0.751125 0.062840
0.227700 0.754333 0.061088
0.516123 0.760739 0.057506
0.798038 0.766734 0.055505
0.921979 0.769473 0.055515
0.134766 0.885663 0.059419
0.267776 0.887807 0.057842
0.556990 0.891784 0.055600
0.835291 0.895172 0.056255
0.956087 0.896637 0.057934
0.000672 0.011391 0.135425
0.108542 0.014966 0.145480
0.363698 0.022638 0.160931
0.635979 0.030601 0.168902
0.763160 0.034493 0.170520
0.007156 0.146036 0.153284
0.121359 0.150282 0.159660
0.386674 0.159291 0.168350
0.664440 0.168438 0.171099
0.792623 0.172820 0.170833
0.040294 0.449579 0.170386
0.165266 0.454001 0.171084
0.446666 0.463290 0.169670
0.730456 0.472508 0.165506
0.858145 0.476844 0.163128
0.103397 0.752376 0.167797
0.234999 0.755498 0.165690
0.523716 0.761791 0.160352
0.805073 0.767772 0.155281
0.928476 0.770536 0.153472
0.143020 0.886511 0.163416
0.276289 0.888561 0.160940
0.565447 0.892399 0.155769
0.842827 0.895733 0.152214
0.962893 0.897191 0.151568
0.002847 0.014397 0.343176
0.113547 0.017900 0.358561
0.373254 0.025604 0.383278
0.648082 0.033850 0.397224
0.775783 0.037947 0.400505
0.011463 0.149608 0.370836
0.128086 0.153745 0.381170
0.397209 0.162725 0.396183
0.676803 0.172100 0.402077
0.805181 0.176665 0.402215
0.050074 0.453300 0.400210
0.176655 0.457592 0.402001
0.460161 0.466778 0.400762
0.744143 0.476135 0.393774
0.871300 0.480611 0.389144
0.119457 0.755009 0.397822
0.251873 0.757971 0.394114
0.540999 0.764078 0.383141
0.820886 0.770085 0.369592
0.942986 0.772923 0.363005
0.162145 0.888246 0.389728
0.295872 0.890115 0.384474
0.584667 0.893705 0.371127
0.859749 0.896957 0.356601
0.978029 0.898399 0.350047
0.005906 0.017339 0.561392
0.119248 0.020815 0.580758
0.383193 0.028649 0.611931
0.660265 0.037268 0.629169
0.788349 0.041612 0.632923
0.016756 0.153084 0.596253
0.135639 0.157165 0.609281
0.408241 0.166218 0.627923
0.689347 0.175912 0.634354
0.817781 0.180700 0.633737
0.061019 0.456908 0.632604
0.189053 0.461114 0.634312
0.474334 0.470292 0.630710
0.758188 0.479876 0.618433
0.884672 0.484530 0.610451
0.136811 0.757504 0.625440
0.269889 0.760346 0.619018
0.559096 0.766350 0.600007
0.837172 0.772458 0.575620
0.957789 0.775398 0.563179
0.182615 0.889826 0.611460
0.316649 0.891551 0.602340
0.604744 0.894964 0.578455
0.877114 0.898168 0.550569
0.993243 0.899554 0.536925
0.007599 0.018665 0.663554
0.122086 0.022144 0.684310
0.387852 0.030069 0.717515
0.665842 0.038887 0.735377
0.794054 0.043356 0.738957
0.019498 0.154645 0.700869
0.139356 0.158716 0.714715
0.413431 0.167834 0.734131
0.695119 0.177704 0.739956
0.823532 0.182606 0.738617
0.066386 0.458521 0.738674
0.195030 0.462703 0.739960
0.481009 0.471906 0.734458
0.764699 0.481623 0.718971
0.890829 0.486371 0.709106
0.145134 0.758602 0.727716
0.278462 0.761403 0.719697
0.567596 0.767387 0.696246
0.844733 0.773563 0.666154
0.964608 0.776557 0.650688
0.192370 0.890502 0.710351
0.326493 0.892173 0.699118
0.614157 0.895526 0.669664
0.885131 0.898710 0.634883
1.000000 0.900000 0.617500
