services/cinematic/luts/thriller_teal_orange.cube
LUT_3D_SIZE 33
0.000000 0.010000 0.045000
0.001889 0.010066 0.045150
0.007419 0.010262 0.045579
0.016391 0.010577 0.046255
0.028618 0.011004 0.047145
0.043919 0.011531 0.048213
0.062115 0.012149 0.049423
0.083029 0.012848 0.050739
0.106475 0.013616 0.052126
0.132259 0.014447 0.053550
0.160179 0.015329 0.054980
0.190019 0.016257 0.056388
0.221547 0.017221 0.057751
0.254522 0.018214 0.059047
0.288683 0.019231 0.060260
0.323759 0.020264 0.061378
0.359465 0.021306 0.062391
0.395504 0.022352 0.063294
0.431569 0.023395 0.064086
0.467346 0.024427 0.064769
0.502511 0.025443 0.065345
0.536739 0.026433 0.065822
0.569699 0.027391 0.066207
0.601060 0.028307 0.066510
0.630491 0.029172 0.066740
0.657660 0.029976 0.066909
0.682240 0.030708 0.067028
0.703906 0.031358 0.067107
0.722336 0.031914 0.067155
0.737212 0.032366 0.067183
0.748219 0.032702 0.067196
0.755047 0.032911 0.067202
0.757391 0.032983 0.067203
0.000048 0.012427 0.045293
0.001944 0.012494 0.045440
0.007485 0.012692 0.045863
0.016472 0.013010 0.046532
0.028716 0.013439 0.047414
0.044037 0.013970 0.048473
0.062256 0.014591 0.049672
0.083194 0.015293 0.050977
0.106665 0.016065 0.052351
0.132476 0.016899 0.053761
0.160423 0.017786 0.055178
0.190290 0.018718 0.056572
0.221846 0.019686 0.057921
0.254846 0.020684 0.059203
0.289033 0.021705 0.060402
0.324133 0.022742 0.061505
0.359862 0.023789 0.062505
0.395923 0.024839 0.063396
0.432008 0.025886 0.064176
0.467802 0.026923 0.064846
0.502984 0.027942 0.065412
0.537226 0.028936 0.065878
0.570199 0.029897 0.066254
0.601570 0.030816 0.066548
0.631009 0.031684 0.066771
0.658186 0.032491 0.066934
0.682772 0.033225 0.067047
0.704443 0.033877 0.067121
0.722876 0.034436 0.067165
0.737755 0.034889 0.067189
0.748764 0.035225 0.067200
0.755593 0.035435 0.067204
0.757937 0.035507 0.067205
0.000216 0.019516 0.046122
0.002122 0.019585 0.046264
0.007690 0.019786 0.046675
0.016717 0.020111 0.047326
0.029010 0.020547 0.048185
0.044389 0.021086 0.049217
0.062673 0.021716 0.050386
0.083680 0.022428 0.051657
0.107226 0.023211 0.052995
0.133114 0.024057 0.054367
0.161140 0.024955 0.055744
0.191085 0.025899 0.057098
0.222719 0.026880 0.058405
0.255797 0.027890 0.059646
0.290057 0.028923 0.060805
0.325229 0.029973 0.061869
0.361024 0.031032 0.062830
0.397147 0.032094 0.063683
0.433289 0.033153 0.064427
0.469135 0.034201 0.065064
0.504363 0.035231 0.065598
0.538646 0.036236 0.066036
0.571654 0.037207 0.066385
0.603057 0.038135 0.066655
0.632521 0.039011 0.066856
0.659719 0.039826 0.066999
0.684323 0.040567 0.067095
0.706007 0.041225 0.067154
0.724451 0.041788 0.067187
0.739337 0.042246 0.067202
0.750351 0.042585 0.067206
0.757184 0.042797 0.067206
0.759529 0.042870 0.067206
0.000529 0.030985 0.047410
0.002448 0.031056 0.047547
0.008055 0.031263 0.047940
0.017141 0.031595 0.048564
0.029511 0.032041 0.049388
0.044981 0.032592 0.050378
0.063367 0.033236 0.051499
0.084486 0.033963 0.052716
0.108149 0.034763 0.053997
0.134161 0.035625 0.055309
0.162312 0.036542 0.056623
0.192384 0.037504 0.057913
0.224144 0.038503 0.059155
0.257343 0.039533 0.060331
0.291723 0.040586 0.061425
0.327007 0.041654 0.062426
0.362908 0.042733 0.063325
0.399130 0.043813 0.064120
0.435363 0.044890 0.064808
0.471291 0.045956 0.065392
0.506593 0.047003 0.065876
0.540941 0.048024 0.066267
0.574006 0.049011 0.066574
0.605456 0.049953 0.066805
0.634961 0.050843 0.066972
0.662193 0.051669 0.067084
0.686823 0.052421 0.067154
0.708528 0.053089 0.067191
0.726988 0.053660 0.067205
0.741886 0.054123 0.067205
0.752909 0.054468 0.067199
0.759746 0.054682 0.067193
0.762092 0.054756 0.067190
0.001016 0.046559 0.049069
0.002952 0.046632 0.049197
0.008607 0.046844 0.049569
0.017769 0.047185 0.050159
0.030239 0.047644 0.050938
0.045828 0.048209 0.051873
0.064350 0.048870 0.052931
0.085617 0.049615 0.054078
0.109439 0.050435 0.055284
0.135614 0.051319 0.056516
0.163933 0.052258 0.057747
0.194174 0.053244 0.058952
0.226101 0.054267 0.060108
0.259464 0.055322 0.061198
0.294001 0.056399 0.062207
0.329435 0.057492 0.063124
0.365478 0.058595 0.063942
0.401831 0.059699 0.064659
0.438184 0.060800 0.065273
0.474222 0.061888 0.065787
0.509621 0.062957 0.066206
0.544054 0.063999 0.066537
0.577192 0.065005 0.066788
0.608706 0.065966 0.066969
0.638264 0.066872 0.067090
0.665538 0.067713 0.067163
0.690203 0.068479 0.067199
0.711936 0.069159 0.067206
0.730417 0.069740 0.067196
0.745330 0.070211 0.067178
0.756362 0.070562 0.067158
0.763205 0.070780 0.067143
0.765553 0.070855 0.067138
0.001712 0.065963 0.051000
0.003668 0.066038 0.051120
0.009381 0.066256 0.051467
0.018634 0.066607 0.052016
0.031224 0.067079 0.052741
0.046957 0.067660 0.053611
0.065643 0.068339 0.054593
0.087091 0.069105 0.055657
0.111104 0.069948 0.056772
0.137480 0.070856 0.057908
0.166004 0.071821 0.059039
0.196450 0.072833 0.060141
0.228581 0.073884 0.061194
0.262143 0.074966 0.062180
0.296871 0.076072 0.063087
0.332488 0.077193 0.063904
0.368702 0.078324 0.064625
0.405213 0.079456 0.065249
0.441712 0.080583 0.065774
0.477880 0.081697 0.066204
0.513396 0.082791 0.066545
0.547931 0.083857 0.066804
0.581158 0.084885 0.066989
0.612746 0.085867 0.067111
0.642366 0.086793 0.067179
0.669691 0.087652 0.067205
0.694397 0.088434 0.067200
0.716161 0.089127 0.067173
0.734665 0.089719 0.067135
0.749595 0.090200 0.067094
0.760638 0.090557 0.067058
0.767488 0.090779 0.067034
0.769838 0.090856 0.067025
0.002661 0.088921 0.053106
0.004639 0.088998 0.053216
0.010417 0.089223 0.053534
0.019773 0.089583 0.054039
0.032500 0.090068 0.054703
0.048399 0.090666 0.055498
0.067274 0.091364 0.056395
0.088929 0.092152 0.057364
0.113164 0.093018 0.058376
0.139770 0.093953 0.059403
0.168530 0.094945 0.060420
0.199213 0.095985 0.061406
0.231578 0.097065 0.062341
0.265368 0.098177 0.063210
0.300317 0.099313 0.064000
0.336142 0.100464 0.064704
0.372552 0.101624 0.065316
0.409244 0.102786 0.065834
0.445908 0.103942 0.066260
0.482224 0.105084 0.066597
0.517871 0.106205 0.066851
0.552522 0.107296 0.067029
0.585847 0.108348 0.067141
0.617518 0.109352 0.067196
0.647206 0.110299 0.067205
0.674587 0.111176 0.067179
0.699336 0.111975 0.067129
0.721134 0.112682 0.067064
0.739663 0.113287 0.066995
0.754610 0.113778 0.066930
0.765665 0.114142 0.066876
0.772522 0.114368 0.066841
0.774874 0.114446 0.066829
0.003910 0.115152 0.055288
0.005913 0.115231 0.055388
0.011762 0.115461 0.055675
0.021233 0.115832 0.056130
0.034110 0.116330 0.056728
0.050192 0.116944 0.057443
0.069276 0.117661 0.058246
0.091160 0.118471 0.059112
0.115640 0.119361 0.060011
0.142502 0.120321 0.060919
0.171523 0.121340 0.061813
0.202468 0.122409 0.062672
0.235092 0.123519 0.063479
0.269134 0.124660 0.064220
0.304325 0.125826 0.064885
0.340380 0.127008 0.065466
0.377004 0.128198 0.065960
0.413894 0.129389 0.066365
0.450737 0.130574 0.066683
0.487215 0.131744 0.066920
0.523004 0.132891 0.067080
0.557778 0.134008 0.067172
0.591208 0.135084 0.067206
0.622966 0.136111 0.067191
0.652727 0.137078 0.067137
0.680164 0.137974 0.067057
0.704958 0.138789 0.066959
0.726789 0.139511 0.066855
0.745342 0.140128 0.066753
0.760307 0.140629 0.066663
0.771373 0.141000 0.066592
0.778235 0.141231 0.066546
0.780590 0.141310 0.066529
0.005511 0.144367 0.057455
0.007541 0.144448 0.057544
0.013467 0.144685 0.057799
0.023059 0.145064 0.058201
0.036099 0.145574 0.058729
0.052376 0.146204 0.059359
0.071685 0.146939 0.060064
0.093817 0.147769 0.060819
0.118560 0.148682 0.061599
0.145697 0.149666 0.062382
0.174998 0.150712 0.063145
0.206224 0.151808 0.063871
0.239125 0.152945 0.064543
0.273438 0.154115 0.065151
0.308887 0.155310 0.065684
0.345186 0.156520 0.066136
0.382038 0.157739 0.066506
0.419137 0.158958 0.066794
0.456170 0.160170 0.067001
0.492816 0.161367 0.067133
0.528753 0.162539 0.067197
0.563654 0.163680 0.067201
0.597191 0.164779 0.067155
0.629038 0.165827 0.067068
0.658871 0.166813 0.066952
0.686365 0.167728 0.066816
0.711201 0.168558 0.066671
0.733064 0.169294 0.066527
0.751639 0.169923 0.066393
0.766618 0.170432 0.066278
0.777694 0.170810 0.066189
0.784561 0.171045 0.066132
0.786917 0.171126 0.066112
0.007516 0.176270 0.059525
0.009574 0.176353 0.059602
0.015580 0.176594 0.059823
0.025301 0.176982 0.060172
0.038511 0.177504 0.060628
0.054995 0.178147 0.061169
0.074539 0.178899 0.061772
0.096931 0.179747 0.062414
0.121951 0.180680 0.063072
0.149376 0.181687 0.063725
0.178971 0.182755 0.064354
0.210492 0.183875 0.064943
0.243683 0.185038 0.065478
0.278277 0.186234 0.065948
0.313995 0.187454 0.066347
0.350548 0.188690 0.066670
0.387635 0.189935 0.066915
0.424949 0.191179 0.067083
0.462175 0.192415 0.067178
0.498993 0.193636 0.067206
0.535079 0.194831 0.067174
0.570107 0.195993 0.067091
0.603750 0.197112 0.066966
0.635684 0.198179 0.066809
0.665585 0.199182 0.066630
0.693131 0.200112 0.066441
0.718007 0.200956 0.066251
0.739896 0.201704 0.066069
0.758490 0.202342 0.065904
0.773481 0.202860 0.065765
0.784563 0.203244 0.065659
0.791434 0.203482 0.065592
0.793791 0.203564 0.065568
0.009976 0.210554 0.061427
0.012062 0.210638 0.061492
0.018152 0.210884 0.061679
0.028004 0.211278 0.061973
0.041390 0.211809 0.062356
0.058087 0.212464 0.062808
0.077875 0.213230 0.063309
0.100534 0.214094 0.063837
0.125840 0.215044 0.064371
0.153561 0.216069 0.064894
0.183458 0.217157 0.065389
0.215281 0.218298 0.065840
0.248769 0.219482 0.066238
0.283651 0.220699 0.066572
0.319643 0.221941 0.066837
0.356452 0.223199 0.067031
0.393777 0.224464 0.067152
0.431307 0.225730 0.067204
0.468726 0.226986 0.067190
0.505713 0.228226 0.067117
0.541945 0.229440 0.066992
0.577096 0.230619 0.066825
0.610841 0.231754 0.066625
0.642855 0.232836 0.066401
0.672818 0.233853 0.066165
0.700411 0.234795 0.065925
0.725319 0.235651 0.065693
0.747230 0.236407 0.065476
0.765837 0.237054 0.065283
0.780834 0.237577 0.065123
0.791920 0.237966 0.065002
0.798792 0.238207 0.064925
0.801149 0.238290 0.064899
0.012936 0.246901 0.063104
0.015051 0.246986 0.063157
0.021225 0.247235 0.063310
0.031212 0.247635 0.063550
0.044776 0.248173 0.063861
0.061689 0.248837 0.064225
0.081724 0.249613 0.064624
0.104655 0.250489 0.065039
0.130249 0.251453 0.065452
0.158271 0.252492 0.065847
0.188473 0.253595 0.066210
0.220600 0.254751 0.066527
0.254386 0.255951 0.066790
0.289555 0.257185 0.066992
0.325820 0.258443 0.067128
0.362884 0.259717 0.067197
0.400444 0.260998 0.067200
0.438185 0.262279 0.067140
0.475793 0.263550 0.067022
0.512943 0.264804 0.066854
0.549314 0.266031 0.066642
0.584581 0.267223 0.066397
0.618418 0.268369 0.066127
0.650505 0.269461 0.065843
0.680521 0.270488 0.065554
0.708151 0.271438 0.065271
0.733083 0.272301 0.065001
0.755008 0.273064 0.064754
0.773621 0.273716 0.064538
0.788620 0.274243 0.064359
0.799704 0.274635 0.064225
0.806574 0.274878 0.064141
0.808931 0.274962 0.064112
0.016435 0.284983 0.064514
0.018580 0.285070 0.064556
0.024838 0.285321 0.064676
0.034959 0.285724 0.064864
0.048702 0.286267 0.065104
0.065831 0.286937 0.065383
0.086113 0.287720 0.065683
0.109314 0.288604 0.065989
0.135197 0.289576 0.066285
0.163517 0.290624 0.066556
0.194022 0.291736 0.066791
0.226450 0.292903 0.066980
0.260531 0.294113 0.067115
0.295983 0.295356 0.067190
0.332516 0.296625 0.067204
0.369829 0.297908 0.067156
0.407615 0.299199 0.067048
0.445560 0.300488 0.066884
0.483346 0.301768 0.066671
0.520650 0.303029 0.066415
0.557149 0.304263 0.066126
0.592520 0.305461 0.065811
0.626439 0.306614 0.065480
0.658586 0.307711 0.065143
0.688645 0.308742 0.064810
0.716302 0.309696 0.064489
0.741247 0.310561 0.064188
0.763177 0.311327 0.063917
0.781788 0.311981 0.063682
0.796781 0.312510 0.063489
0.807859 0.312902 0.063345
0.814725 0.313146 0.063255
0.817080 0.313230 0.063224
0.020503 0.324466 0.065633
0.022676 0.324552 0.065664
0.029018 0.324804 0.065752
0.039272 0.325209 0.065889
0.053191 0.325754 0.066063
0.070534 0.326426 0.066260
0.091059 0.327212 0.066466
0.114527 0.328099 0.066668
0.140693 0.329074 0.066852
0.169306 0.330126 0.067007
0.200107 0.331242 0.067122
0.232830 0.332412 0.067190
0.267197 0.333625 0.067205
0.302923 0.334872 0.067163
0.339713 0.336143 0.067064
0.377263 0.337429 0.066909
0.415265 0.338721 0.066700
0.453401 0.340012 0.066443
0.491352 0.341293 0.066144
0.528797 0.342555 0.065812
0.565411 0.343789 0.065454
0.600871 0.344987 0.065079
0.634858 0.346138 0.064697
0.667052 0.347234 0.064317
0.697140 0.348264 0.063948
0.724811 0.349216 0.063598
0.749760 0.350080 0.063275
0.771683 0.350844 0.062986
0.790283 0.351496 0.062738
0.805264 0.352024 0.062536
0.816330 0.352415 0.062386
0.823187 0.352658 0.062292
0.825539 0.352742 0.062260
0.025157 0.365003 0.066447
0.027359 0.365089 0.066468
0.033782 0.365341 0.066527
0.044166 0.365745 0.066617
0.058257 0.366289 0.066727
0.075807 0.366959 0.066848
0.096570 0.367744 0.066966
0.120297 0.368629 0.067071
0.146738 0.369602 0.067151
0.175634 0.370651 0.067198
0.206721 0.371764 0.067203
0.239727 0.372930 0.067160
0.274368 0.374140 0.067066
0.310355 0.375382 0.066918
0.347388 0.376648 0.066717
0.385162 0.377929 0.066466
0.423363 0.379216 0.066168
0.461675 0.380500 0.065830
0.499776 0.381774 0.065459
0.537344 0.383029 0.065061
0.574056 0.384256 0.064647
0.609591 0.385446 0.064225
0.643629 0.386590 0.063803
0.675855 0.387678 0.063391
0.705957 0.388700 0.062996
0.733629 0.389645 0.062626
0.758567 0.390502 0.062288
0.780473 0.391260 0.061989
0.799053 0.391906 0.061734
0.814013 0.392430 0.061528
0.825061 0.392818 0.061376
0.831906 0.393059 0.061281
0.834254 0.393142 0.061249
0.030402 0.406245 0.066961
0.032630 0.406331 0.066973
0.039133 0.406581 0.067004
0.049642 0.406982 0.067050
0.063899 0.407521 0.067103
0.081649 0.408187 0.067152
0.102640 0.408965 0.067190
0.126616 0.409842 0.067206
0.153320 0.410807 0.067193
0.182487 0.411847 0.067141
0.213846 0.412951 0.067047
0.247119 0.414107 0.066905
0.282019 0.415305 0.066713
0.318250 0.416535 0.066472
0.355510 0.417788 0.066183
0.393489 0.419055 0.065849
0.431872 0.420328 0.065476
0.470341 0.421598 0.065070
0.508573 0.422857 0.064639
0.546247 0.424097 0.064190
0.583039 0.425308 0.063733
0.618630 0.426483 0.063275
0.652702 0.427612 0.062826
0.684943 0.428685 0.062393
0.715044 0.429693 0.061983
0.742702 0.430625 0.061604
0.767616 0.431470 0.061261
0.789493 0.432217 0.060960
0.808042 0.432854 0.060705
0.822973 0.433370 0.060500
0.833998 0.433752 0.060349
0.840827 0.433990 0.060256
0.843169 0.434071 0.060224
0.036226 0.447839 0.067190
0.038480 0.447923 0.067192
0.045058 0.448169 0.067199
0.055686 0.448565 0.067205
0.070102 0.449097 0.067205
0.088043 0.449753 0.067191
0.109250 0.450520 0.067157
0.133462 0.451386 0.067094
0.160414 0.452336 0.066996
0.189837 0.453361 0.066858
0.221452 0.454448 0.066676
0.254975 0.455586 0.066447
0.290115 0.456764 0.066172
0.326571 0.457975 0.065851
0.364038 0.459207 0.065487
0.402203 0.460452 0.065086
0.440748 0.461703 0.064652
0.479353 0.462950 0.064193
0.517696 0.464186 0.063717
0.555454 0.465402 0.063231
0.592307 0.466590 0.062744
0.627935 0.467742 0.062265
0.662024 0.468849 0.061800
0.694262 0.469901 0.061358
0.724345 0.470888 0.060945
0.751973 0.471801 0.060567
0.776850 0.472628 0.060228
0.798687 0.473359 0.059933
0.817194 0.473983 0.059685
0.832088 0.474487 0.059487
0.843083 0.474861 0.059342
0.849893 0.475094 0.059253
0.852228 0.475174 0.059223
0.042600 0.489427 0.067157
0.044879 0.489510 0.067152
0.051528 0.489751 0.067137
0.062269 0.490138 0.067108
0.076834 0.490660 0.067061
0.094954 0.491303 0.066992
0.116365 0.492055 0.066893
0.140798 0.492902 0.066761
0.167983 0.493833 0.066590
0.197643 0.494836 0.066378
0.229495 0.495899 0.066121
0.263249 0.497012 0.065819
0.298608 0.498164 0.065474
0.335269 0.499347 0.065088
0.372921 0.500550 0.064665
0.411249 0.501766 0.064210
0.449934 0.502985 0.063731
0.488654 0.504202 0.063234
0.527086 0.505406 0.062727
0.564909 0.506591 0.062218
0.601802 0.507748 0.061717
0.637447 0.508870 0.061229
0.671533 0.509946 0.060763
0.703752 0.510970 0.060324
0.733801 0.511930 0.059919
0.761384 0.512817 0.059552
0.786211 0.513622 0.059227
0.807994 0.514333 0.058946
0.826450 0.514939 0.058712
0.841298 0.515429 0.058527
0.852258 0.515793 0.058392
0.859044 0.516018 0.058309
0.861372 0.516096 0.058281
0.049480 0.530654 0.066898
0.051782 0.530735 0.066886
0.058497 0.530970 0.066852
0.069344 0.531347 0.066792
0.084047 0.531855 0.066705
0.102335 0.532482 0.066587
0.123935 0.533213 0.066435
0.148573 0.534038 0.066243
0.175972 0.534943 0.066011
0.205850 0.535918 0.065736
0.237918 0.536952 0.065418
0.271882 0.538032 0.065057
0.307438 0.539151 0.064657
0.344281 0.540298 0.064220
0.382095 0.541465 0.063752
0.420564 0.542643 0.063260
0.459366 0.543824 0.062750
0.498179 0.545002 0.062229
0.536679 0.546167 0.061707
0.574545 0.547313 0.061190
0.611457 0.548431 0.060687
0.647101 0.549515 0.060205
0.681165 0.550555 0.059749
0.713347 0.551543 0.059326
0.743345 0.552470 0.058940
0.770870 0.553327 0.058595
0.795632 0.554103 0.058292
0.817351 0.554789 0.058034
0.835747 0.555374 0.057821
0.850542 0.555847 0.057653
0.861460 0.556197 0.057532
0.868220 0.556415 0.057459
0.870538 0.556490 0.057434
0.056801 0.571167 0.066450
0.059124 0.571245 0.066433
0.065900 0.571473 0.066382
0.076845 0.571839 0.066297
0.091676 0.572331 0.066176
0.110118 0.572936 0.066018
0.131891 0.573644 0.065820
0.156717 0.574441 0.065580
0.184312 0.575316 0.065298
0.214387 0.576258 0.064973
0.246650 0.577255 0.064606
0.280800 0.578297 0.064200
0.316532 0.579376 0.063759
0.353532 0.580481 0.063286
0.391486 0.581604 0.062788
0.430073 0.582737 0.062273
0.468970 0.583873 0.061747
0.507853 0.585004 0.061218
0.546399 0.586123 0.060694
0.584287 0.587223 0.060183
0.621199 0.588296 0.059692
0.656822 0.589335 0.059227
0.690847 0.590332 0.058795
0.722975 0.591279 0.058398
0.752909 0.592167 0.058042
0.780360 0.592987 0.057727
0.805047 0.593731 0.057456
0.826691 0.594387 0.057227
0.845017 0.594947 0.057041
0.859752 0.595400 0.056897
0.870623 0.595736 0.056794
0.877353 0.595944 0.056732
0.879661 0.596016 0.056711
0.064480 0.610619 0.065855
0.066823 0.610695 0.065834
0.073655 0.610914 0.065769
0.084688 0.611266 0.065663
0.099637 0.611739 0.065515
0.118218 0.612321 0.065324
0.140149 0.613001 0.065090
0.165144 0.613767 0.064812
0.192915 0.614607 0.064491
0.223167 0.615510 0.064128
0.255603 0.616466 0.063726
0.289917 0.617464 0.063288
0.325800 0.618496 0.062819
0.362936 0.619553 0.062324
0.401007 0.620626 0.061810
0.439688 0.621708 0.061286
0.478657 0.622792 0.060757
0.517589 0.623871 0.060233
0.556160 0.624937 0.059722
0.594051 0.625985 0.059229
0.630944 0.627006 0.058762
0.666528 0.627995 0.058328
0.700499 0.628943 0.057929
0.732557 0.629843 0.057570
0.762412 0.630687 0.057253
0.789779 0.631467 0.056978
0.814379 0.632173 0.056745
0.835939 0.632796 0.056553
0.854188 0.633328 0.056400
0.868857 0.633758 0.056284
0.879677 0.634076 0.056202
0.886374 0.634275 0.056152
0.888670 0.634343 0.056136
0.072418 0.648669 0.065157
0.074778 0.648741 0.065132
0.081661 0.648951 0.065057
0.092774 0.649287 0.064934
0.107828 0.649740 0.064765
0.126535 0.650296 0.064549
0.148607 0.650946 0.064287
0.173753 0.651677 0.063980
0.201679 0.652478 0.063631
0.232088 0.653338 0.063242
0.264674 0.654248 0.062816
0.299131 0.655198 0.062358
0.335143 0.656179 0.061874
0.372392 0.657182 0.061370
0.410556 0.658200 0.060854
0.449311 0.659226 0.060333
0.488331 0.660252 0.059815
0.527291 0.661273 0.059308
0.565868 0.662281 0.058820
0.603743 0.663271 0.058358
0.640600 0.664236 0.057927
0.676130 0.665169 0.057532
0.710031 0.666063 0.057177
0.742008 0.666912 0.056865
0.771772 0.667708 0.056595
0.799044 0.668442 0.056367
0.823548 0.669108 0.056180
0.845016 0.669695 0.056030
0.863181 0.670196 0.055915
0.877779 0.670601 0.055830
0.888544 0.670901 0.055772
0.895206 0.671087 0.055738
0.897490 0.671151 0.055726
0.080495 0.684984 0.064397
0.082871 0.685053 0.064369
0.089799 0.685252 0.064286
0.100984 0.685572 0.064151
0.116132 0.686002 0.063965
0.134950 0.686531 0.063731
0.157147 0.687147 0.063450
0.182426 0.687840 0.063124
0.210488 0.688600 0.062756
0.241032 0.689414 0.062350
0.273748 0.690275 0.061912
0.308325 0.691173 0.061445
0.344444 0.692099 0.060958
0.381784 0.693045 0.060456
0.420021 0.694004 0.059948
0.458829 0.694969 0.059442
0.497881 0.695934 0.058946
0.536851 0.696892 0.058468
0.575417 0.697839 0.058014
0.613260 0.698766 0.057591
0.650066 0.699670 0.057205
0.685529 0.700544 0.056859
0.719348 0.701381 0.056557
0.751232 0.702175 0.056298
0.780897 0.702919 0.056082
0.808065 0.703605 0.055908
0.832466 0.704227 0.055771
0.853836 0.704776 0.055669
0.871912 0.705244 0.055595
0.886435 0.705622 0.055544
0.897143 0.705902 0.055512
0.903769 0.706076 0.055495
0.906040 0.706136 0.055489
0.088578 0.719241 0.063614
0.090968 0.719305 0.063583
0.097936 0.719494 0.063495
0.109184 0.719797 0.063351
0.124414 0.720203 0.063154
0.143330 0.720703 0.062908
0.165635 0.721285 0.062614
0.191030 0.721939 0.062276
0.219210 0.722654 0.061899
0.249869 0.723421 0.061486
0.282695 0.724231 0.061044
0.317371 0.725074 0.060579
0.353577 0.725942 0.060098
0.390989 0.726828 0.059608
0.429280 0.727726 0.059119
0.468122 0.728628 0.058637
0.507188 0.729528 0.058172
0.546152 0.730422 0.057730
0.584692 0.731303 0.057319
0.622490 0.732167 0.056945
0.659233 0.733007 0.056611
0.694618 0.733819 0.056320
0.728346 0.734596 0.056076
0.760129 0.735332 0.055876
0.789687 0.736022 0.055720
0.816746 0.736659 0.055603
0.841040 0.737235 0.055522
0.862308 0.737744 0.055470
0.880293 0.738177 0.055440
0.894738 0.738527 0.055426
0.905387 0.738787 0.055422
0.911975 0.738948 0.055422
0.914233 0.739003 0.055423
0.096519 0.751125 0.062840
0.098921 0.751186 0.062809
0.105924 0.751363 0.062717
0.117226 0.751649 0.062567
0.132528 0.752031 0.062364
0.151528 0.752501 0.062111
0.173927 0.753048 0.061811
0.199420 0.753662 0.061468
0.227700 0.754333 0.061088
0.258456 0.755051 0.060676
0.291372 0.755808 0.060239
0.326129 0.756596 0.059783
0.362404 0.757406 0.059316
0.399869 0.758231 0.058847
0.438196 0.759066 0.058383
0.477057 0.759903 0.057933
0.516123 0.760739 0.057506
0.555068 0.761566 0.057108
0.593569 0.762382 0.056745
0.631312 0.763180 0.056424
0.667983 0.763955 0.056147
0.703282 0.764704 0.055918
0.736913 0.765420 0.055735
0.768591 0.766099 0.055599
0.798038 0.766734 0.055505
0.824985 0.767319 0.055449
0.849169 0.767849 0.055425
0.870334 0.768316 0.055425
0.888227 0.768714 0.055441
0.902595 0.769036 0.055465
0.913184 0.769274 0.055490
0.919734 0.769422 0.055508
0.921979 0.769473 0.055515
0.104157 0.780332 0.062106
0.106570 0.780390 0.062074
0.113602 0.780557 0.061980
0.124951 0.780824 0.061828
0.140314 0.781183 0.061622
0.159386 0.781624 0.061366
0.181864 0.782136 0.061065
0.207440 0.782710 0.060723
0.235803 0.783337 0.060346
0.266638 0.784008 0.059941
0.299628 0.784713 0.059514
0.334449 0.785445 0.059073
0.370775 0.786197 0.058627
0.408278 0.786962 0.058184
0.446628 0.787735 0.057751
0.485494 0.788509 0.057339
0.524548 0.789279 0.056954
0.563463 0.790042 0.056603
0.601919 0.790792 0.056293
0.639598 0.791525 0.056029
0.676193 0.792236 0.055812
0.711402 0.792922 0.055645
0.744934 0.793578 0.055526
0.776504 0.794199 0.055454
0.805840 0.794779 0.055424
0.832675 0.795314 0.055429
0.856750 0.795798 0.055463
0.877814 0.796224 0.055516
0.895615 0.796587 0.055578
0.909906 0.796881 0.055641
0.920437 0.797098 0.055694
0.926951 0.797233 0.055730
0.929183 0.797280 0.055743
0.111324 0.806569 0.061435
0.113745 0.806622 0.061402
0.120803 0.806779 0.061308
0.132191 0.807030 0.061155
0.147605 0.807366 0.060949
0.166737 0.807778 0.060694
0.189280 0.808257 0.060395
0.214924 0.808794 0.060058
0.243355 0.809378 0.059689
0.274255 0.810002 0.059295
0.307302 0.810657 0.058883
0.342172 0.811337 0.058462
0.378536 0.812033 0.058040
0.416064 0.812740 0.057626
0.454425 0.813453 0.057228
0.493286 0.814166 0.056855
0.532319 0.814874 0.056514
0.571199 0.815574 0.056213
0.609602 0.816261 0.055957
0.647216 0.816931 0.055749
0.683732 0.817582 0.055593
0.718852 0.818207 0.055488
0.752284 0.818805 0.055433
0.783750 0.819370 0.055424
0.812978 0.819898 0.055456
0.839704 0.820384 0.055522
0.863675 0.820823 0.055612
0.884640 0.821210 0.055716
0.902354 0.821539 0.055823
0.916572 0.821805 0.055923
