services/cinematic/luts/thriller_teal_orange.cube
LUT_3D_SIZE 9
0.000000 0.010000 0.045000
0.028618 0.011004 0.047145
0.106475 0.013616 0.052126
0.221547 0.017221 0.057751
0.359465 0.021306 0.062391
0.502511 0.025443 0.065345
0.630491 0.029172 0.066740
0.722336 0.031914 0.067155
0.757391 0.032983 0.067203
0.001016 0.046559 0.049069
0.030239 0.047644 0.050938
0.109439 0.050435 0.055284
0.226101 0.054267 0.060108
0.365478 0.058595 0.063942
0.509621 0.062957 0.066206
0.638264 0.066872 0.067090
0.730417 0.069740 0.067196
0.765553 0.070855 0.067138
0.005511 0.144367 0.057455
0.036099 0.145574 0.058729
0.118560 0.148682 0.061599
0.239125 0.152945 0.064543
0.382038 0.157739 0.066506
0.528753 0.162539 0.067197
0.658871 0.166813 0.066952
0.751639 0.169923 0.066393
0.786917 0.171126 0.066112
0.016435 0.284983 0.064514
0.048702 0.286267 0.065104
0.135197 0.289576 0.066285
0.260531 0.294113 0.067115
0.407615 0.299199 0.067048
0.557149 0.304263 0.066126
0.688645 0.308742 0.064810
0.781788 0.311981 0.063682
0.817080 0.313230 0.063224
0.036226 0.447839 0.067190
0.070102 0.449097 0.067205
0.160414 0.452336 0.066996
0.290115 0.456764 0.066172
0.440748 0.461703 0.064652
0.592307 0.466590 0.062744
0.724345 0.470888 0.060945
0.817194 0.473983 0.059685
0.852228 0.475174 0.059223
0.064480 0.610619 0.065855
0.099637 0.611739 0.065515
0.192915 0.614607 0.064491
0.325800 0.618496 0.062819
0.478657 0.622792 0.060757
0.630944 0.627006 0.058762
0.762412 0.630687 0.057253
0.854188 0.633328 0.056400
0.888670 0.634343 0.056136
0.096519 0.751125 0.062840
0.132528 0.752031 0.062364
0.227700 0.754333 0.061088
0.362404 0.757406 0.059316
0.516123 0.760739 0.057506
0.667983 0.763955 0.056147
0.798038 0.766734 0.055505
0.888227 0.768714 0.055441
0.921979 0.769473 0.055515
0.123542 0.848979 0.060345
0.160006 0.849684 0.059869
0.256133 0.851447 0.058666
0.391586 0.853743 0.057174
0.545309 0.856162 0.055939
0.696266 0.858431 0.055425
0.824789 0.860348 0.055743
0.913464 0.861695 0.056490
0.946547 0.862207 0.056902
0.134766 0.885663 0.059419
0.171371 0.886279 0.058964
0.267776 0.887807 0.057842
0.403398 0.889765 0.056531
0.556990 0.891784 0.055600
0.707472 0.893636 0.055493
0.835291 0.895172 0.056255
0.923298 0.896236 0.057370
0.956087 0.896637 0.057934
0.000156 0.010382 0.069596
0.028907 0.011386 0.071980
0.107031 0.013989 0.077562
0.222417 0.017586 0.083939
0.360623 0.021672 0.089317
0.503887 0.025818 0.092885
0.632000 0.029562 0.094719
0.723908 0.032320 0.095391
0.758980 0.033394 0.095525
0.001261 0.046975 0.074131
0.030592 0.048053 0.076227
0.110044 0.050832 0.081130
0.227008 0.054655 0.086651
0.366662 0.058981 0.091166
0.511009 0.063352 0.093988
0.639775 0.067281 0.095265
0.731983 0.070163 0.095595
0.767134 0.071284 0.095610
0.005944 0.144830 0.083601
0.036626 0.146030 0.085061
0.119314 0.149124 0.088387
0.240149 0.153375 0.091895
0.383304 0.158165 0.094392
0.530190 0.162972 0.095500
0.660400 0.167258 0.095526
0.753202 0.170380 0.095107
0.788487 0.171589 0.094868
0.017161 0.285475 0.091859
0.049508 0.286752 0.092585
0.136195 0.290046 0.094093
0.261754 0.294570 0.095310
0.409027 0.299650 0.095579
0.558682 0.304718 0.094880
0.690226 0.309206 0.093668
0.783373 0.312455 0.092564
0.818659 0.313710 0.092105
0.037321 0.448321 0.095475
0.071262 0.449572 0.095573
0.161729 0.452797 0.095552
0.291600 0.457210 0.094920
0.442362 0.462140 0.093517
0.593983 0.467027 0.091616
0.726019 0.471332 0.089736
0.818836 0.474436 0.088370
0.853851 0.475631 0.087857
0.065976 0.611048 0.094641
0.101183 0.612161 0.094332
0.194575 0.615013 0.093361
0.327578 0.618885 0.091692
0.480504 0.623170 0.089535
0.632793 0.627381 0.087338
0.764209 0.631066 0.085567
0.855917 0.633714 0.084482
0.890367 0.634732 0.084119
0.098384 0.751473 0.091715
0.134431 0.752372 0.091226
0.229684 0.754656 0.089889
0.364458 0.757710 0.087960
0.518195 0.761029 0.085874
0.670006 0.764240 0.084135
0.799963 0.767019 0.083078
0.890052 0.769003 0.082675
0.923760 0.769764 0.082610
0.125680 0.849250 0.089091
0.162172 0.849947 0.088572
0.258357 0.851691 0.087228
0.393847 0.853967 0.085470
0.547551 0.856369 0.083833
0.698422 0.858629 0.082817
0.826813 0.860543 0.082614
0.915363 0.861890 0.082948
0.948390 0.862402 0.083193
0.137009 0.885900 0.088076
0.173639 0.886508 0.087566
0.270093 0.888018 0.086274
0.405740 0.889954 0.084655
0.559299 0.891955 0.083276
0.709679 0.893796 0.082620
0.837354 0.895327 0.082821
0.925224 0.896389 0.083495
0.957953 0.896789 0.083883
0.000672 0.011391 0.135425
0.029730 0.012386 0.138409
0.108542 0.014966 0.145480
0.224743 0.018547 0.153727
0.363698 0.022638 0.160931
0.507525 0.026813 0.166007
0.635979 0.030601 0.168902
0.728046 0.033400 0.170185
0.763160 0.034493 0.170520
0.001972 0.048059 0.141120
0.031579 0.049123 0.143778
0.111688 0.051872 0.150065
0.229437 0.055674 0.157319
0.369808 0.060001 0.163512
0.514684 0.064397 0.167698
0.643762 0.068368 0.169913
0.736108 0.071290 0.170769
0.771294 0.072428 0.170954
0.007156 0.146036 0.153284
0.038082 0.147221 0.155204
0.121359 0.150282 0.159660
0.242895 0.154507 0.164555
0.386674 0.159291 0.168350
0.533998 0.164116 0.170452
0.664440 0.168438 0.171099
0.757325 0.171595 0.170986
0.792623 0.172820 0.170833
0.019152 0.286758 0.164503
0.051707 0.288019 0.165562
0.138892 0.291279 0.167864
0.265030 0.295772 0.170006
0.412791 0.300840 0.171055
0.562750 0.305919 0.170841
0.694411 0.310436 0.169815
0.787559 0.313716 0.168710
0.822829 0.314984 0.168222
0.040294 0.449579 0.170386
0.074404 0.450814 0.170677
0.165266 0.454001 0.171084
0.295574 0.458379 0.170868
0.446666 0.463290 0.169670
0.598435 0.468181 0.167688
0.730456 0.472508 0.165506
0.823181 0.475637 0.163798
0.858145 0.476844 0.163128
0.070009 0.612166 0.170665
0.105346 0.613261 0.170413
0.199032 0.616074 0.169519
0.332331 0.619905 0.167772
0.485428 0.624164 0.165262
0.637710 0.628371 0.162433
0.768977 0.632070 0.159887
0.860499 0.634737 0.158130
0.894861 0.635764 0.157485
0.103397 0.752376 0.167797
0.139540 0.753257 0.167251
0.234999 0.755498 0.165690
0.369947 0.758505 0.163265
0.523716 0.761791 0.160352
0.675384 0.764988 0.157515
0.805073 0.767772 0.155281
0.894889 0.769768 0.153925
0.928476 0.770536 0.153472
0.131412 0.849950 0.164712
0.167977 0.850627 0.164058
0.264306 0.852325 0.162283
0.399884 0.854550 0.159738
0.553523 0.856911 0.156947
0.704152 0.859148 0.154509
0.832185 0.861056 0.152853
0.920394 0.862405 0.152039
0.953272 0.862920 0.151823
0.143020 0.886511 0.163416
0.179713 0.887099 0.162741
0.276289 0.888561 0.160940
0.411990 0.890443 0.158426
0.565447 0.892399 0.155769
0.715548 0.894214 0.153571
0.842827 0.895733 0.152214
0.930327 0.896791 0.151668
0.962893 0.897191 0.151568
0.001576 0.012802 0.230795
0.031036 0.013784 0.234542
0.110792 0.016338 0.243510
0.228120 0.019905 0.254134
0.368106 0.024012 0.263637
0.512700 0.028237 0.270568
0.641611 0.032096 0.274729
0.733884 0.034958 0.276713
0.769051 0.036078 0.277272
0.003138 0.049567 0.237967
0.033124 0.050613 0.241340
0.114137 0.053330 0.249392
0.232969 0.057112 0.258838
0.374323 0.061451 0.267124
0.519919 0.065893 0.272966
0.649412 0.069929 0.276277
0.741935 0.072912 0.277715
0.777162 0.074077 0.278079
0.009043 0.147715 0.253558
0.040306 0.148881 0.256063
0.124393 0.151904 0.261938
0.246893 0.156100 0.268553
0.391523 0.160886 0.273914
0.539435 0.165747 0.277155
0.670180 0.170127 0.278456
0.763162 0.173341 0.278614
0.798471 0.174590 0.278523
0.022159 0.288546 0.268483
0.055001 0.289787 0.269947
0.142869 0.293005 0.273206
0.269797 0.297462 0.276425
0.418215 0.302523 0.278316
0.568572 0.307628 0.278529
0.700373 0.312193 0.277544
0.793504 0.315523 0.276283
0.828742 0.316813 0.275697
0.044708 0.451329 0.277045
0.079049 0.452543 0.277546
0.170448 0.455685 0.278400
0.301346 0.460020 0.278548
0.452871 0.464914 0.277386
0.604818 0.469821 0.275039
0.736790 0.474186 0.272216
0.829367 0.477356 0.269875
0.864249 0.478582 0.268926
0.075936 0.613717 0.278391
0.111449 0.614789 0.278161
0.205529 0.617552 0.277218
0.339218 0.621333 0.275143
0.492524 0.625565 0.271887
0.644765 0.629775 0.267924
0.775793 0.633501 0.264074
0.867032 0.636200 0.261220
0.901263 0.637243 0.260122
0.110720 0.753622 0.275174
0.146990 0.754478 0.274490
0.242720 0.756664 0.272461
0.377885 0.759613 0.269122
0.531668 0.762860 0.264799
0.683102 0.766047 0.260173
0.812382 0.768844 0.256073
0.901793 0.770861 0.253226
0.935199 0.771638 0.252171
0.139760 0.850906 0.271142
0.176420 0.851557 0.270238
0.272931 0.853195 0.267705
0.408606 0.855353 0.263839
0.562120 0.857665 0.259179
0.712374 0.859877 0.254499
0.839869 0.861782 0.250584
0.927570 0.863137 0.248004
0.960225 0.863654 0.247082
0.151764 0.887341 0.269336
0.188540 0.887902 0.268370
0.285265 0.889302 0.265702
0.421017 0.891114 0.261715
0.574296 0.893015 0.257017
0.723966 0.894798 0.252406
0.850653 0.896305 0.248644
0.937598 0.897358 0.246228
0.969921 0.897756 0.245382
0.002847 0.014397 0.343176
0.032745 0.015367 0.347692
0.113547 0.017900 0.358561
0.232128 0.021463 0.371544
0.373254 0.025604 0.383278
0.518684 0.029900 0.391946
0.648082 0.033850 0.397224
0.740565 0.036793 0.399777
0.775783 0.037947 0.400505
0.004712 0.051267 0.351833
0.035115 0.052298 0.355924
0.117132 0.054988 0.365733
0.237166 0.058761 0.377335
0.379603 0.063126 0.387624
0.525980 0.067634 0.394978
0.655912 0.071758 0.399214
0.748610 0.074820 0.401087
0.783875 0.076017 0.401569
0.011463 0.149608 0.370836
0.043101 0.150756 0.373914
0.128086 0.153745 0.381170
0.251649 0.157922 0.389413
0.397209 0.162725 0.396183
0.545750 0.167642 0.400353
0.676803 0.172100 0.402077
0.769868 0.175385 0.402320
0.805181 0.176665 0.402215
0.025889 0.290562 0.389325
0.059048 0.291784 0.391164
0.147669 0.294963 0.395283
0.275460 0.299393 0.399405
0.424586 0.304458 0.401886
0.575353 0.309606 0.402223
0.707274 0.314239 0.400968
0.800358 0.317632 0.399307
0.835550 0.318950 0.398524
0.050074 0.453300 0.400210
0.084668 0.454494 0.400865
0.176655 0.457592 0.402001
0.308187 0.461891 0.402245
0.460161 0.466778 0.400762
0.612267 0.471715 0.397639
0.744143 0.476135 0.393774
0.836521 0.479360 0.390493
0.871300 0.480611 0.389144
0.083058 0.615457 0.402052
0.118761 0.616506 0.401763
0.213264 0.619219 0.400542
0.347358 0.622955 0.397780
0.500857 0.627167 0.393318
0.653004 0.631393 0.387706
0.783718 0.635161 0.382064
0.874606 0.637905 0.377743
0.908674 0.638967 0.376047
0.119457 0.755009 0.397822
0.155863 0.755840 0.396896
0.251873 0.757971 0.394114
0.387246 0.760864 0.389422
0.540999 0.764078 0.383141
0.692117 0.767264 0.376126
0.820886 0.770085 0.369592
0.909799 0.772132 0.364829
0.942986 0.772923 0.363005
0.149682 0.851958 0.392277
0.186439 0.852582 0.391006
0.283132 0.854159 0.387390
0.418874 0.856251 0.381712
0.572199 0.858516 0.374572
0.721974 0.860710 0.366985
0.848804 0.862618 0.360189
0.935883 0.863981 0.355375
0.968264 0.864503 0.353563
0.162145 0.888246 0.389728
0.199003 0.888780 0.388348
0.295872 0.890115 0.384474
0.431639 0.891857 0.378502
0.584667 0.893705 0.371127
0.733793 0.895460 0.363415
0.859749 0.896957 0.356601
0.946010 0.898005 0.351829
0.978029 0.898399 0.350047
0.004368 0.015974 0.458538
0.034687 0.016935 0.463717
0.116501 0.019456 0.476210
0.236292 0.023030 0.491173
0.378511 0.027218 0.504718
0.524731 0.031599 0.514709
0.654576 0.035652 0.520752
0.747241 0.038685 0.523628
0.782499 0.039876 0.524432
0.006545 0.052943 0.468472
0.037351 0.053964 0.473175
0.120338 0.056638 0.484472
0.241531 0.060415 0.497857
0.385003 0.064823 0.509732
0.532113 0.069411 0.518190
0.662443 0.073634 0.523000
0.755288 0.076782 0.525063
0.790580 0.078016 0.525570
0.014165 0.151474 0.490357
0.046163 0.152608 0.493908
0.132014 0.155574 0.502284
0.256596 0.159746 0.511794
0.403036 0.164581 0.519567
0.552158 0.169567 0.524265
0.683477 0.174115 0.526069
0.776598 0.177480 0.526156
0.811903 0.178794 0.525947
0.029927 0.292548 0.511693
0.063391 0.293755 0.513810
0.152732 0.296905 0.518539
0.281342 0.301321 0.523213
0.431124 0.306406 0.525889
0.582253 0.311611 0.525959
0.714252 0.316323 0.524100
0.807260 0.319788 0.521805
0.842395 0.321137 0.520737
0.055773 0.455239 0.524107
0.090608 0.456416 0.524823
0.183149 0.459479 0.525999
0.315271 0.463754 0.526000
0.467645 0.468649 0.523811
0.619860 0.473630 0.519535
0.751598 0.478117 0.514303
0.843749 0.481405 0.509853
0.878414 0.482683 0.508018
0.090533 0.617161 0.525679
0.126413 0.618191 0.525239
0.221307 0.620863 0.523505
0.355763 0.624565 0.519727
0.509405 0.628772 0.513684
0.661409 0.633027 0.506058
0.791767 0.636847 0.498305
0.882272 0.639643 0.492296
0.916166 0.640729 0.489917
0.128563 0.756357 0.519782
0.165093 0.757167 0.518528
0.261351 0.759249 0.514763
0.396889 0.762098 0.508397
0.550562 0.765291 0.499793
0.701313 0.768489 0.490028
0.829525 0.771343 0.480749
0.917905 0.773426 0.473847
0.950857 0.774233 0.471170
0.159985 0.852967 0.512274
0.196827 0.853567 0.510550
0.293669 0.855090 0.505626
0.429436 0.857128 0.497818
0.582520 0.859357 0.487838
0.731762 0.861542 0.476987
0.857872 0.863458 0.466994
0.944279 0.864832 0.459717
0.976362 0.865356 0.456925
0.172909 0.889107 0.508813
0.209839 0.889616 0.506933
0.306819 0.890895 0.501629
0.442557 0.892577 0.493356
0.595282 0.894382 0.482946
0.743808 0.896116 0.471774
0.868972 0.897606 0.461588
0.954486 0.898644 0.454223
0.986166 0.899029 0.451408
0.005906 0.017339 0.561392
0.036579 0.018295 0.567065
0.119248 0.020815 0.580758
0.240059 0.024407 0.597146
0.383193 0.028649 0.611931
0.530063 0.033115 0.622746
0.660265 0.037268 0.629169
0.753065 0.040385 0.632128
0.788349 0.041612 0.632923
0.008360 0.054393 0.572278
0.039507 0.055408 0.577433
0.123314 0.058075 0.589811
0.245481 0.061867 0.604452
0.389818 0.066324 0.617375
0.537528 0.070993 0.626465
0.668171 0.075313 0.631492
0.761121 0.078543 0.633523
0.796428 0.079811 0.633979
0.016756 0.153084 0.596253
0.049058 0.154211 0.600138
0.135639 0.157165 0.609281
0.261073 0.161344 0.619606
0.408241 0.166218 0.627923
0.557829 0.171275 0.632759
0.689347 0.175912 0.634354
0.782492 0.179354 0.634111
0.817781 0.180700 0.633737
0.033705 0.294261 0.619496
0.067423 0.295458 0.621779
0.157367 0.298591 0.626836
0.286655 0.303005 0.631709
0.436970 0.308119 0.634236
0.588374 0.313385 0.633757
0.720407 0.318175 0.631100
0.813325 0.321710 0.628062
0.848400 0.323088 0.626673
0.061019 0.456908 0.632604
0.096053 0.458073 0.633298
0.189053 0.461114 0.634312
0.321653 0.465379 0.633825
0.474334 0.470292 0.630710
0.626605 0.475321 0.625122
0.758188 0.479876 0.618433
0.850116 0.483226 0.612780
0.884672 0.484530 0.610451
0.097345 0.618622 0.633318
0.133371 0.619639 0.632675
0.228579 0.622282 0.630301
0.363314 0.625965 0.625368
0.517041 0.630177 0.617646
0.668881 0.634468 0.607964
0.798892 0.638343 0.598113
0.889037 0.641190 0.590451
0.922770 0.642298 0.587408
0.136811 0.757504 0.625440
0.173439 0.758298 0.623828
0.269889 0.760346 0.619018
0.405534 0.763164 0.610932
0.559096 0.766350 0.600007
0.709485 0.769567 0.587550
0.837172 0.772458 0.575620
0.925055 0.774576 0.566671
0.957789 0.775398 0.563179
0.169284 0.853816 0.615854
0.206192 0.854398 0.613664
0.303138 0.855881 0.607416
0.438891 0.857878 0.597494
0.591722 0.860085 0.584744
0.740454 0.862270 0.570751
0.865889 0.864197 0.557706
0.951660 0.865577 0.548084
0.983458 0.866101 0.544358
0.182615 0.889826 0.611460
0.219597 0.890316 0.609075
0.316649 0.891551 0.602340
0.452326 0.893189 0.591805
0.604744 0.894964 0.578455
0.752697 0.896686 0.563968
0.877114 0.898168 0.550569
0.961906 0.899188 0.540731
0.993243 0.899554 0.536925
0.007114 0.018300 0.635290
0.038032 0.019256 0.641268
0.121289 0.021778 0.655690
0.242803 0.025390 0.672918
0.386561 0.029676 0.688391
0.533871 0.034209 0.699602
0.664306 0.038438 0.706135
0.757188 0.041618 0.709041
0.792485 0.042871 0.709787
0.009769 0.055413 0.646759
0.041150 0.056425 0.652188
0.125522 0.059093 0.665213
0.248358 0.062902 0.680577
0.393284 0.067400 0.694053
0.541397 0.072132 0.703407
0.672243 0.076526 0.708429
0.765254 0.079818 0.710326
0.800565 0.081112 0.710703
0.018723 0.154216 0.671981
0.051235 0.155339 0.676056
0.138316 0.158289 0.685626
0.264332 0.162479 0.696364
0.411992 0.167387 0.704884
0.561889 0.172502 0.709636
0.693527 0.177207 0.710927
0.786676 0.180707 0.710342
0.821949 0.182077 0.709810
0.036522 0.295464 0.696250
0.070416 0.296655 0.698607
0.160770 0.299781 0.703783
0.290517 0.304200 0.708639
0.441186 0.309341 0.710881
0.592762 0.314656 0.709839
0.724800 0.319507 0.706464
0.817640 0.323095 0.702795
0.852669 0.324496 0.701140
0.064885 0.458079 0.709491
0.100056 0.459237 0.710128
0.193365 0.462266 0.710917
0.326282 0.466529 0.709932
0.479158 0.471461 0.705989
0.631446 0.476531 0.699301
0.762900 0.481139 0.691434
0.854657 0.484537 0.684827
0.889131 0.485861 0.682110
0.102329 0.619644 0.709251
0.138451 0.620652 0.708423
0.233868 0.623280 0.705490
0.368781 0.626953 0.699592
0.522545 0.631177 0.690513
0.674245 0.635498 0.679210
0.803991 0.639417 0.667732
0.893867 0.642304 0.658799
0.927479 0.643429 0.655247
0.142818 0.758302 0.699677
0.179509 0.759086 0.697772
0.276080 0.761113 0.692120
0.411781 0.763915 0.682671
0.565241 0.767101 0.669939
0.715351 0.770337 0.655413
0.842644 0.773257 0.641464
0.930156 0.775403 0.630963
0.962728 0.776237 0.626853
0.176039 0.854401 0.688417
0.212987 0.854972 0.685859
0.309993 0.856429 0.678571
0.445715 0.858403 0.667010
0.598345 0.860599 0.652136
0.746689 0.862787 0.635755
0.871615 0.864722 0.620400
0.956903 0.866104 0.609000
0.988477 0.866624 0.604563
0.189659 0.890319 0.683287
0.226673 0.890796 0.680505
0.323761 0.892004 0.672657
0.459374 0.893614 0.660378
0.611551 0.895372 0.644783
0.759070 0.897088 0.627782
0.882920 0.898562 0.611952
0.967143 0.899556 0.600226
0.998178 0.899892 0.595646
0.007599 0.018665 0.663554
0.038608 0.019620 0.669638
0.122086 0.022144 0.684310
0.243861 0.025765 0.701822
0.387852 0.030069 0.717515
0.535323 0.034628 0.728837
0.665842 0.038887 0.735377
0.758753 0.042093 0.738238
0.794054 0.043356 0.738957
0.010331 0.055799 0.675226
0.041800 0.056811 0.680749
0.126382 0.059480 0.693993
0.249468 0.063296 0.709595
0.394612 0.067811 0.723242
0.542873 0.072569 0.732655
0.673792 0.076992 0.737642
0.766823 0.080308 0.739465
0.802136 0.081612 0.739803
0.019498 0.154645 0.700869
0.052088 0.155766 0.705008
0.139356 0.158716 0.714715
0.265589 0.162911 0.725574
0.413431 0.167834 0.734131
0.563439 0.172972 0.738813
0.695119 0.177704 0.739956
0.788266 0.181226 0.739216
0.823532 0.182606 0.738617
0.037622 0.295919 0.725459
0.071581 0.297109 0.727835
0.162088 0.300232 0.733032
0.292005 0.304654 0.737847
0.442803 0.309807 0.739942
0.594439 0.315141 0.738648
0.726475 0.320018 0.734969
0.819283 0.323627 0.731038
0.854293 0.325036 0.729273
0.066386 0.458521 0.738674
0.101607 0.459677 0.739280
0.195030 0.462703 0.739960
0.328063 0.466966 0.738753
0.481009 0.471906 0.734458
0.633298 0.476994 0.727316
0.764699 0.481623 0.718971
0.856388 0.485039 0.711979
0.890829 0.486371 0.709106
0.104255 0.620029 0.737997
0.140413 0.621035 0.737089
0.235906 0.623657 0.733922
0.370882 0.627329 0.727626
0.524654 0.631557 0.717996
0.676297 0.635892 0.706041
0.805938 0.639828 0.693915
0.895708 0.642731 0.684478
0.929274 0.643863 0.680725
0.145134 0.758602 0.727716
0.181848 0.759382 0.725691
0.278462 0.761403 0.719697
0.414179 0.764200 0.709700
0.567596 0.767387 0.696246
0.717595 0.770630 0.680900
0.844733 0.773563 0.666154
0.932100 0.775719 0.655041
0.964608 0.776557 0.650688
0.178640 0.854620 0.715777
0.215602 0.855187 0.713071
0.312628 0.856635 0.705366
0.448334 0.858601 0.693152
0.600881 0.860794 0.677438
0.749072 0.862983 0.660114
0.873799 0.864921 0.643848
0.958894 0.866303 0.631747
0.990378 0.866820 0.627027
0.192370 0.890502 0.710351
0.229394 0.890975 0.707410
0.326493 0.892173 0.699118
0.462078 0.893774 0.686146
0.614157 0.895526 0.669664
0.761506 0.897240 0.651673
0.885131 0.898710 0.634883
0.969120 0.899689 0.622405
1.000000 0.900000 0.617500
